X:1
T:James Gibb editions
T:Crabbed Age and Youth - Parry
T:#
%%score 1 ( 2 3 ) ( 4 5 )
L:1/8
Q:1/4=80
M:4/4
K:Eb
V:1 treble nm="Midi_74"
V:2 treble nm="Midi_1"
V:3 treble 
V:4 bass nm="Midi_1"
V:5 bass 
V:1
"^Crabbed Age and Youth""^Capriccioso""^William Shakespeare\n(1564-1616)""^Charles Hubert Hastings Parry\n(1848-1918)" z8 | %1
w: |
 z8 | z8 |!mf! B>c BG E4 | B<c B>!<(!G E c3!<)! | e>d cB!>(! (!>!cB) G2!>)! |!p! E>F GE !>!G4 | %7
w: ||Crabb- ed Age and Youth|Can- not live to- ge- ther:|Youth is full of plea\- * sance,|Age is full of care;|
"^cresc." A3 G GA F2 | B3 A AB G<E |!<(! c3 !>!d!<)!!>(! ec!>)! A2 |!mf!!>(! G3 c B G3!>)! | %11
w: Youth like sum- mer morn,|Age like win- ter wea- ther,|Youth like sum- mer brave,|Age like win- ter|
 E4 z4 | z8 | z8 |!f! B>c BG !>!e4 | d>c B=A B4 | B3 G e2 G2 | d3 =A B4 |!f! f>e de f4 | %19
w: bare:|||Youth is full of sport,|A- ge's breath is short,|Youth is nim- ble,|Age is lame.|Youth is hot and bold,|
!mf! B>=A!>(! GB F4!>)! |!f! f3 d f4- | f2 G2 c3 e | B4 z4 | z8 | %24
w: Age is weak and cold,|Youth is wild,|* and Age is|tame.||
[Q:1/4=78] z8[Q:1/4=74][Q:1/4=72][Q:1/4=70][Q:1/4=70] |!f! e4- eABc | (!>!BG) E4 z2 | %27
w: |Age * I do ab-|hor * thee,|
 e4- e"^poco rit."[Q:1/4=78]c[Q:1/4=76]d[Q:1/4=74]!<(!e | %28
w: Youth * I do a-|
[Q:1/4=72] (f[Q:1/4=70]!>!d)!<)![Q:1/4=70] B4 df | g3 f (feB)G | F4 z4 | z4!f! !>!f4- | %32
w: dore * thee; O my|Love, my Love, * * is|young~!|Age|
 f2 f2 e3 c | !>![ea]2 F2 !fermata!z4 | z8 | z8 | %36
w: * I do de-|fy thee.|||
[Q:1/4=70]"^meno mosso"!p![Q:1/4=70][Q:1/4=70] E2 F2 (GA) (GE) | (GB) d4 B>G | A6 B>G | A4 z B2 G | %40
w: O sweet shep\- * herd, *|hie * thee, For me-|thinks, For me-|thinks, for me-|
 (A!<(!B) (cd)!<)!!>(! e4!>)! | z2!p! E>F G2 A2 | (B"^poco rit."cBG BcBG | Bc B2) !fermata!z2 D2 | %44
w: thinks * thou * stay'st,|for me- thinks thou|stay'st * * * * * * *|* * * too|
[Q:1/4=80] E4 z4 |[M:4/4][Q:1/4=80][Q:1/4=80][Q:1/4=80] z8 | z8 | z8 |] %48
w: long.||||
V:2
!f! (!>!g>a ge) (gb) z2 | (!>!e>f ec) (eg) z2 | (!>!B>c BG) E4 | ([G,E]3 B,) ([B,D]2 [A,C]2) | %4
 ([G,E]3 B,) ([B,D]2 [A,C]2) | ([G,E]2 B,2) ([E,B,E]2 B,2) |!p! ([EG]3 [=A,C]) ([B,D]3 [G,B,]) | %7
 ([A,C]>E A)[A,C] [F,D]2 z2 | ([B,D]>F B)[B,D] [G,E]2 z2 | %9
!<(! ([CE]>A c)!<)![CE]!f!!>(! [EAe]2 [CEA]2!>)! | (.[B,EG]2 .[B,EB]2) z2!p! [B,D]2 | %11
!p! (!>!g>a ge) (gb) z2 | (e>f ec) (eg) z2 | (B>c BG)!<(! E4!<)! |!f! [G,E]2 z2 (c>d c)e | %15
 (!>![=A,C^F]4 [G,B,G]2) z2 | ([DBd]>[Ee] [Dd]).[B,B] [EGe]2 [B,EG]2 | ([CE=A]2 [EG]F) [DFB]4 | %18
!f! z [df] z [Bd] z [=Ac] z [FA] |!mf! z [GB] z [=EG] z [DF] z D | %20
!f! z [FBf] z [DFd] z [CFc] z [=A,C=A] | z2 [G,!courtesy!_EG]2 z2 [E,=A,E]2 | %22
 z2!f! (b>c' bg) (af) | (ge) (fd) (ec) (dB) | .[EGc]2 !>![CEG]2-"^poco rit." [CEG].[CEG] [DB]2- | %25
!f! B>c BG E4 | B>c BG E4 | (B>c BG"^poco rit." [Ee]2) ([EF]2- | %28
 [DF]2) ([B,FB]>[Cc]!<(! [B,B][Cc][Dd][Ff])!<)! | [GBeg]2 z2 z4 | (F>"^a tempo"GF).C x4 | %31
 .[D!courtesy!_Ad]2 z2 z4 | z2!f! .[DAd]2 .[EGe]2 z2 |!ff! [Acea]4 !fermata!z2!p! (ef) | %34
!p! (ec) z (f eB) z (c | BF) z (c BG) z B | [CE]2 z2 z4 | [B,GB]2 z2 [GBd]2 z2 | z2 A4 z2 | %39
 z2 A4 z2 | z2!<(! (EF!<)!!>(! GABc!>)! | B2 z2 z2!p! ([CEA]2 | %42
 [DFB]2)"^poco rit." [B,DG]2 [A,CF]2 [G,B,E]2) | !>![G,B,E]4 !fermata!z2 [F,A,D]2 | %44
!mp! (B>cBG) (A>BAF) | (GA [B,EB]2 B,2) [A,DF]2 | (E>FEC) (E>FEC) | ([G,E]4 .[Ge]2) z2 |] %48
V:3
 (c4 B2) z2 | (A4 G2) z2 | E4 (C2 B,A,) | x8 | x8 | x8 | x8 | x8 | x8 | x4 x4 | x4 x4 | %11
 (c4 B2) z2 | (A4 G2) z2 | [B,E]4 C2 B,A, | x2 x2 [EG]2 z2 | x8 | x8 | x8 | x8 | x8 | x8 | x4 x4 | %22
 z2 [df]2- [df]2 [ce]2 | [Bd]2 [Ac]2 [GB]2 [FA]2 | x4 x2 FG | E2 D4 C2 | E2 D4 C2 | E4 x4 | x4 x4 | %29
 x4 x4 | [=A,E]2 x2 .F.=A.c.e | x4 x4 | x4 x4 | x4 x4 | A2 z2 G2 z2 | D2 z2 E2 z2 | x4 x4 | x4 x4 | %38
 z2 (E2 D2) z2 | z2 (C2 B,2) z2 | z2 E2- E4 | E2 z2 z2 x2 | x4 x4 | x4 x4 | E4 E4- | E2 x2 x4 | %46
 G,2 A,2 G,2 F,2 | x4 x4 |] %48
V:4
 ([CE]4 [G,D]2) z2 | ([A,C]4 [E,B,]2) z2 | E,4 E,4 | ([E,,B,,]2 E,2) ([A,,,A,,]2 E,2) | %4
 ([E,,B,,]2 E,2) ([A,,,A,,]2 E,2) | ([E,,B,,]2 E,2) ([G,,,G,,]2 E,2) | %6
 ([C,,C,]2 E,2) ([G,,,G,,]2 D,2) |"^cresc." [F,,,F,,]3 F,, ([A,,,A,,]>C, D,B,,) | %8
 [G,,,G,,]3 [G,,,G,,] ([C,,C,]>D, E,)C, | [A,,,A,,]2 [E,A,]2 [F,,,F,,]2 [E,A,]2 | %10
 [B,,,B,,]2 [B,,G,]2 z2!p! [B,,A,]2 | ([CE]4 [G,D]2) z2 | ([A,C]4 [E,B,]2) z2 |!p! E,4 E,4 | %14
!f! [E,,B,,E,]2 z2 [C,!courtesy!=G,A,]2 z2 | [D,,D,]4- ([D,,D,]>[C,,C,] [B,,,B,,][=A,,,=A,,]) | %16
 [G,,,G,,]2 [G,,D,G,]2 [C,,C,]2 [C,G,]2 | [F,,F,]4- ([F,,F,]>[E,,E,] [D,,D,][B,,,B,,]) | %18
 [DF] z [B,D] z [=A,C] z [F,A,] z | [G,B,] z [=E,G,] z [D,F,] z [D,,D,] z | %20
 [D,D] z [C,B,] z [=A,,=A,] z [F,,F,] z | [!courtesy!_E,,!courtesy!_E,]4 [C,,C,]4 | %22
 [B,,,B,,]2[K:treble] (B>c BG) (AF) | (GE) (FD)[K:bass] (EC) (DB,) | %24
 .[E,G,C]2 z2 [B,,,B,,]2 [B,,A,]2 |"^a tempo" [E,,B,,G,]2 [E,G,]2 [A,,,A,,]2 [A,,E,]2 | %26
 [E,,B,,]2 [E,G,]2 [A,,,A,,]2 [A,,E,A,]2 | [E,,B,,]2 [E,G,]2 [C,,C,]2 [C,=A,]2 | %28
 [B,,,B,,]2 F,4 x2 | [G,,E,B,]2 z2 z4 | [C,E,F,]2 z2 z =A,CE | [=B,,F,_A,]2 z2 z4 | %32
 z2 [=B,,F,A,]2 [C,G,]2 z2 | [F,,C,E,A,]4 !fermata!z4 |!p! [CE]2 z2 [B,E]2 z2 | %35
 [A,B,]2 z2 [G,B,]2 z2 | [C,G,]2 z2 z4 | [G,,D,G,]2 z2 [G,D]2 z2 | z2 A,4 z2 | z2 F,4 z2 | %40
 z2 A,2 G,F,G,A, | G,2 z2 z4 | z8 | !>!!fermata![B,,,B,,]8 |"^a tempo"!mp! [E,,B,,G,]2 E,2 C2 CA, | %45
 B,2 (G,,A,, B,,2) B,,2- | B,,2 C,2 B,,2 A,,2 | ([E,,B,,]4 .[E,B,]2) z2 |] %48
V:5
 x8 | x8 | G,,4 (A,,2 G,,F,,) | x8 | x8 | x8 | x8 | x8 | x8 | x8 | x8 | x8 | x4 x4 | %13
 G,,4 (G,,2 A,,F,,) | x4 x4 | x8 | x8 | x8 | x8 | x8 | x8 | x4 x4 | x2[K:treble] [DF]4 [CE]2 | %23
 [B,D]2 [A,C]2[K:bass] [G,B,]2 [F,A,]2 | x8 | x8 | x8 | x4 x4 | x2 D,>E, D,E,F,B, | x4 x4 | x8 | %31
 x8 | x8 | x8 | x8 | x8 | x8 | x4 x4 | z2 (G,2 F,2) z2 | z2 (E,2 D,2) z2 | z2 C,2 B,,4- | %41
 B,,2 z2 z4 | x4 x4 | x8 | x4 E,4- | E,2 x2 x2 B,,,2 | E,,8 | x4 x4 |] %48

